X:377
T: Hongjun laile jiuqiongren
N: C1879
O: China, Sichuan Bazhong
S: II, 235]
R: Shange]
M: 2/4
L: 1/16
K: D
A2A2B2d2 | B2A2B2d2 | e8- | e8
B2d2e2ed | B2A2B2d2 | A8- | A8
B2d2e2e2 | e4d4 | B4A4
B2d2e2ed | B2A2B2d2 | A8- | A8

